X: 1
T:Shropshire Reel
T:Much Wenlock
M:4/8
L:1/8
R:Reel
K:G
P:A
D2 E2 F2 |: GFGE D2 GB| AGFE D2 B2 | c2 Ac B2 GB | AGFE D2 EF |
GFGE D2 GB | AGFE D2 B2 | c2 Ac B2 GB | A2 F2 G4 :|
P:B
|: d2 dBGB d2 | e2 ecAc e2 | d2 dBGB d2 | AGFE D2 EF |
GFGE D2 GB | AGFED2 B2 | c2 Ac B2 GB | A2 F2 G4 :|

